X:1
T:To Work!
T:To Work!
T:Florence W. Williams
T:Harley J. Mason, 1902
T:Public Domain Courtesy of the Cyber Hymnal™
T:Public Domain Courtesy of the Cyber Hymnal™
C:Florence W. Williams
Z:Public Domain
Z:Courtesy of the Cyber Hymnal™
%%score ( 1 2 ) ( 3 4 )
L:1/8
Q:1/4=110
M:4/4
K:G
V:1 treble 
V:2 treble 
V:3 bass 
V:4 bass 
V:1
 D2 | G3 G B3 B | d6 d2 | [Fd]2 [FA]2 [FB]2 [Fc]2 | [Gc]2 [GB]2 z2 [B,D]2 | [CD]3 [CE] [CF]3 [CE] | %6
w: 1.~To|work! To work! To|work! O|why are we now|sleep- ing? The|gold- en har- vest|
w: 2.~To|work! To work! To|work! De-|spise not small be-|gin- ning, For|pre- cious souls we’re|
w: 3.~To|work! To work! To|work! O|see the faint are|fall- ing! Be-|fore it is too|
w: 4.~To|work! To work! To|work! The|cry for help grows|strong- er— The|day is pass- ing,|
 [B,D]2 [B,G]2 [DB]2 [DB]2 | [^CA]3 [CB] [CA]3 [CB] | [DA]2 [Fd]4 [Dc]2 | [^CA]3 [CG] [CF]2 [CE]2 | %10
w: waits to- day, And|we should all be|reap- ing, And|we should all be|
w: los- ing now, That|some- one should be|win- ning, That|some- one should be|
w: late to save, Come,|heed the Mas- ter’s|call- ing, Come,|heed the Mas- ter’s|
w: night draws near When|we can work no|long- er, When|we can work no|
 [^CE]2 D2 z2 D2 | [DG]3 [DG] [DA]3 [DA] | [DB]2 [=FB]2 !fermata![Ec]2 [Ee]2 | %13
w: reap- ing. O|come and reap for|Christ your king, A|
w: win- ning. O,|shame on us to|let them fall! To|
w: call- ing. O,|why this heart- less|treat- ment? Why? O,|
w: long- er. Now|to the res- cue,|ev- ery- one! O,|
 [Gd]3 [GB] [GB]2 [Gc]2 | [FA]3 [DG] !fermata![DG]2 ||"^Refrain" D2 | [B,G]3 [A,F] [B,G]3 [CA] | %17
w: wor- thy off- ’ring|to Him bring.|||
w: work! To work and|win them all.|To|work! To work! A-|
w: has- ten to them|or they die!|||
w: has- ten, ere the|night comes on!|||
 [DB]3 [^C^A] [DB]3 [E=c] | [=C=A]3 [B,^G] [CA]3 [DB] | [B,G]3 [A,F] [B,G]3 [B,D] | %20
w: |||
w: way! A- way! The|Mas- ter calls to-|day, to- day; To|
w: |||
w: |||
 [B,G]3 [B,G] [CA]3 [CA] | [DGB]3 [DGB] !fermata![CGc]2 [^CG^c]2 | [DGBd]3 [EGce] [DGd]2 [DGB]2 | %23
w: |||
w: work at once to|con- quer sin, And|bring the pre- cious|
w: |||
w: |||
 [CFA]3 [B,DG] [B,DG]2 |] %24
w: |
w: har- vest in.|
w: |
w: |
V:2
 D2 | G3 G B3 B | d6 d2 | x8 | x8 | x8 | x8 | x8 | x8 | x8 | x2 D2 D2 x2 | x8 | x8 | x8 | x6 || %15
 D2 | x8 | x8 | x8 | x8 | x8 | x8 | x8 | x6 |] %24
V:3
 D,2 | G,3 G, B,3 B, | D6 D2 | [D,D]2 [D,D]2 [D,D]2 [D,D]2 | [G,E]2 [G,D]2 z2 G,2 | %5
 [D,F,]3 [D,F,] [D,A,]3 [D,F,] | [G,,G,]2 [G,,G,]2 [G,,G,]2 [G,,G,]2 | %7
 [G,,G,]3 [G,,G,] [G,,G,]3 [G,,G,] | [D,F,]2 [D,A,]4 [G,,G,]2 | %9
 [A,,E,]3 [A,,E,] [A,,A,]2 [A,,G,]2 | [D,F,]2 [D,F,]2 z2 [C,F,]2 | %11
 [B,,G,]3 [B,,G,] [D,F,]3 [D,F,] | G,2 G,2 !fermata![C,G,]2 [C,G,]2 | [D,B,]3 [D,D] [D,D]2 [D,E]2 | %14
 [D,C]3 [G,B,] !fermata![G,B,]2 || z2 | [G,,G,]2 [D,,D,]2 [G,,G,]2 [D,,D,]2 | %17
 [G,,G,]2 [D,,D,]2 [G,,G,]2 [D,,D,]2 | [F,,F,]2 [D,,D,]2 [E,,F,]2 [D,,D,]2 | %19
 [G,,G,]2 [D,,D,]2 [G,,G,]2 [D,,D,]2 | [G,,G,]2 [G,,G,]2 [F,,F,]2 [F,,F,]2 | %21
 [F,,F,]2 [F,,F,]2 !fermata![E,,E,]2 [_E,,_E,]2 | [D,,D,]2 [C,,C,]2 [B,,,B,,]2 [G,,G,]2 | %23
 [D,,D,]3 [G,,,G,,] [G,,,G,,]2 |] %24
V:4
 D,2 | G,3 G, B,3 B, | D6 D2 | x8 | x6 G,2 | x8 | x8 | x8 | x8 | x8 | x8 | x8 | G,2 G,2 x4 | x8 | %14
 x6 || x2 | x8 | x8 | x8 | x8 | x8 | x8 | x8 | x6 |] %24

